X:21084 
T:HORSE AND JOCKEY (hornpipe), The 
B:DMI.0941
Z:Nordberg/Black
R:hornpipe
%Q:1/4=150
M:C|
L:1/8
K:G
"A modal"
ed|cABG A2ed|cBcA g2fe|dega egdc|B2G2 G2ed|
cABG EFGB|cBcA a2ag|edce gedB|c2A2A2:|
fg|agab aged|cdeg bage|dBGB cedc|B2G2 G2eg|
aged gedc|dedB GABd|cBcd edcB|c2A2A2:|

%%%

